X:1
T: The Awkward Clown's Antics
C:
R:Jig
Q:180
K:G
M:6/8
L:1/16
G2B2B2 B4B2|d2c2A2 B2A2G2|d4e2 d2g2e2|d2e2c2 B2c2A2|G2B2B2 B4B2|d2c2A2 B2A2G2|d4e2 d2g2B2|d2c2A2 G4Bd|
g4g2 g4f2|f4e2 e4d2|d4e2 d2g2e2|d2e2c2 B2c2A2|G2g2g2 g4f2|f4e2 e4d2|d4e2 d2g2e2|d2e2c2 B2c2A2|
G4g2 g4f2|f4e2 e4d2|d4e2 d2g2e2|d2e2c2 B2c2A2|G2g2g2 g4f2|f4e2 e4d2|d4e2 d2g2e2|d2e2c2 B2c2A2|
G2B2B2 B4B2|d2c2A2 B2A2G2|d4e2 d2g2e2|d2e2c2 B2c2A2|G2B2B2 B4B2|d2c2A2 B2A2G2|d4e2 d2g2B2|d2c2A2 G6||
